src/client/assets/pup/icons/entangle.svg

<svg width="225" height="225" viewBox="0 0 225 225" fill="none" xmlns="http://www.w3.org/2000/svg">
<rect x="30.6863" y="112.711" width="116" height="116" transform="rotate(-45 30.6863 112.711)" fill="#00E600"/>
<path d="M93.6863 68.6863H131.686L127.531 80.4957C119.973 101.977 119.973 125.395 127.531 146.877L131.686 158.686H93.6863L97.8414 146.877C105.4 125.395 105.4 101.977 97.8414 80.4957L93.6863 68.6863Z" fill="#7A4A2C"/>
<path d="M130.376 77.2577C128.844 79.7554 126.554 81.6986 123.84 82.8043L121.728 83.6653L113.866 86.2283L103.8 89.3834C103.697 89.4158 103.591 89.4401 103.484 89.456C101.33 89.7751 101.06 92.7725 103.121 93.4724L104.431 93.9174L120.155 100.966C122.826 101.955 122.639 105.793 119.885 106.518L119.07 106.733L107.576 111.218L106.572 111.702C103.493 113.186 103.198 117.456 106.044 119.35C106.241 119.482 106.449 119.597 106.665 119.695L116.224 124.033L120.31 125.698C120.729 125.869 121.119 126.1 121.47 126.386L121.541 126.444C123.053 127.676 123.582 129.752 122.843 131.557C122.626 132.089 122.307 132.574 121.904 132.984L121.077 133.827C119.953 134.971 118.581 135.842 117.067 136.37L115.815 136.808C114.521 137.26 113.174 137.545 111.807 137.657L108.074 137.961C106.702 138.073 105.355 138.394 104.079 138.914C102.24 139.663 100.589 140.81 99.2438 142.271L98.9276 142.615" stroke="#003300" stroke-width="5"/>
<g filter="url(#filter0_d_19_117)">
<mask id="path-4-inside-1_19_117" fill="white">
<path d="M27.3431 117.853C24.2189 114.729 24.2189 109.663 27.3431 106.539L106.539 27.3431C109.663 24.2189 114.729 24.2189 117.853 27.3431L197.049 106.539C200.173 109.663 200.173 114.729 197.049 117.853L117.853 197.049C114.729 200.173 109.663 200.173 106.539 197.049L27.3431 117.853Z"/>
</mask>
<g clip-path="url(#paint0_angular_19_117_clip_path)" data-figma-skip-parse="true" mask="url(#path-4-inside-1_19_117)"><g transform="matrix(0.0452548 0.0452548 -0.0452548 0.0452548 112.196 112.196)"><foreignObject x="-1250" y="-1250" width="2500" height="2500"><div xmlns="http://www.w3.org/1999/xhtml" style="background:conic-gradient(from 90deg,rgba(255, 255, 160, 1) 0deg,rgba(255, 215, 0, 1) 22.5deg,rgba(255, 255, 160, 1) 45deg,rgba(255, 215, 0, 1) 67.5deg,rgba(255, 255, 160, 1) 90deg,rgba(255, 215, 0, 1) 112.5deg,rgba(255, 255, 160, 1) 135deg,rgba(255, 215, 0, 1) 157.5deg,rgba(255, 255, 160, 1) 180deg,rgba(255, 215, 0, 1) 202.5deg,rgba(255, 255, 160, 1) 225deg,rgba(255, 215, 0, 1) 247.5deg,rgba(255, 255, 160, 1) 270deg,rgba(255, 215, 0, 1) 292.5deg,rgba(255, 255, 160, 1) 315deg,rgba(255, 215, 0, 1) 337.5deg,rgba(255, 255, 160, 0.9804) 360deg);height:100%;width:100%;opacity:1"></div></foreignObject></g></g><path d="M27.3431 106.539L38.6568 117.853L117.853 38.6568L106.539 27.3431L95.2254 16.0294L16.0294 95.2254L27.3431 106.539ZM117.853 27.3431L106.539 38.6568L185.735 117.853L197.049 106.539L208.362 95.2254L129.167 16.0294L117.853 27.3431ZM197.049 117.853L185.735 106.539L106.539 185.735L117.853 197.049L129.167 208.362L208.362 129.167L197.049 117.853ZM106.539 197.049L117.853 185.735L38.6568 106.539L27.3431 117.853L16.0294 129.167L95.2254 208.362L106.539 197.049ZM117.853 197.049L106.539 185.735C109.663 182.611 114.729 182.611 117.853 185.735L106.539 197.049L95.2254 208.362C104.598 217.735 119.794 217.735 129.167 208.362L117.853 197.049ZM197.049 106.539L185.735 117.853C182.611 114.729 182.611 109.663 185.735 106.539L197.049 117.853L208.362 129.167C217.735 119.794 217.735 104.598 208.362 95.2254L197.049 106.539ZM106.539 27.3431L117.853 38.6568C114.729 41.781 109.663 41.781 106.539 38.6568L117.853 27.3431L129.167 16.0294C119.794 6.65685 104.598 6.65685 95.2254 16.0294L106.539 27.3431ZM27.3431 106.539L16.0294 95.2254C6.65684 104.598 6.65684 119.794 16.0294 129.167L27.3431 117.853L38.6568 106.539C41.781 109.663 41.781 114.729 38.6568 117.853L27.3431 106.539Z" data-figma-gradient-fill="{&#34;type&#34;:&#34;GRADIENT_ANGULAR&#34;,&#34;stops&#34;:[{&#34;color&#34;:{&#34;r&#34;:1.0,&#34;g&#34;:1.0,&#34;b&#34;:0.62745100259780884,&#34;a&#34;:1.0},&#34;position&#34;:0.0},{&#34;color&#34;:{&#34;r&#34;:1.0,&#34;g&#34;:0.84313726425170898,&#34;b&#34;:0.0,&#34;a&#34;:1.0},&#34;position&#34;:0.06250},{&#34;color&#34;:{&#34;r&#34;:1.0,&#34;g&#34;:1.0,&#34;b&#34;:0.62745100259780884,&#34;a&#34;:1.0},&#34;position&#34;:0.1250},{&#34;color&#34;:{&#34;r&#34;:1.0,&#34;g&#34;:0.84313726425170898,&#34;b&#34;:0.0,&#34;a&#34;:1.0},&#34;position&#34;:0.18750},{&#34;color&#34;:{&#34;r&#34;:1.0,&#34;g&#34;:1.0,&#34;b&#34;:0.62745100259780884,&#34;a&#34;:1.0},&#34;position&#34;:0.250},{&#34;color&#34;:{&#34;r&#34;:1.0,&#34;g&#34;:0.84313726425170898,&#34;b&#34;:0.0,&#34;a&#34;:1.0},&#34;position&#34;:0.31250},{&#34;color&#34;:{&#34;r&#34;:1.0,&#34;g&#34;:1.0,&#34;b&#34;:0.62745100259780884,&#34;a&#34;:1.0},&#34;position&#34;:0.3750},{&#34;color&#34;:{&#34;r&#34;:1.0,&#34;g&#34;:0.84313726425170898,&#34;b&#34;:0.0,&#34;a&#34;:1.0},&#34;position&#34;:0.43750},{&#34;color&#34;:{&#34;r&#34;:1.0,&#34;g&#34;:1.0,&#34;b&#34;:0.62745100259780884,&#34;a&#34;:1.0},&#34;position&#34;:0.50},{&#34;color&#34;:{&#34;r&#34;:1.0,&#34;g&#34;:0.84313726425170898,&#34;b&#34;:0.0,&#34;a&#34;:1.0},&#34;position&#34;:0.56250},{&#34;color&#34;:{&#34;r&#34;:1.0,&#34;g&#34;:1.0,&#34;b&#34;:0.62745100259780884,&#34;a&#34;:1.0},&#34;position&#34;:0.6250},{&#34;color&#34;:{&#34;r&#34;:1.0,&#34;g&#34;:0.84313726425170898,&#34;b&#34;:0.0,&#34;a&#34;:1.0},&#34;position&#34;:0.68750},{&#34;color&#34;:{&#34;r&#34;:1.0,&#34;g&#34;:1.0,&#34;b&#34;:0.62745100259780884,&#34;a&#34;:1.0},&#34;position&#34;:0.750},{&#34;color&#34;:{&#34;r&#34;:1.0,&#34;g&#34;:0.84313726425170898,&#34;b&#34;:0.0,&#34;a&#34;:1.0},&#34;position&#34;:0.81250},{&#34;color&#34;:{&#34;r&#34;:1.0,&#34;g&#34;:1.0,&#34;b&#34;:0.62745100259780884,&#34;a&#34;:1.0},&#34;position&#34;:0.8750},{&#34;color&#34;:{&#34;r&#34;:1.0,&#34;g&#34;:0.84313726425170898,&#34;b&#34;:0.0,&#34;a&#34;:1.0},&#34;position&#34;:0.93750},{&#34;color&#34;:{&#34;r&#34;:1.0,&#34;g&#34;:1.0,&#34;b&#34;:0.62745100259780884,&#34;a&#34;:0.98039215803146362},&#34;position&#34;:1.0}],&#34;stopsVar&#34;:[{&#34;color&#34;:{&#34;r&#34;:1.0,&#34;g&#34;:1.0,&#34;b&#34;:0.62745100259780884,&#34;a&#34;:1.0},&#34;position&#34;:0.0},{&#34;color&#34;:{&#34;r&#34;:1.0,&#34;g&#34;:0.84313726425170898,&#34;b&#34;:0.0,&#34;a&#34;:1.0},&#34;position&#34;:0.06250},{&#34;color&#34;:{&#34;r&#34;:1.0,&#34;g&#34;:1.0,&#34;b&#34;:0.62745100259780884,&#34;a&#34;:1.0},&#34;position&#34;:0.1250},{&#34;color&#34;:{&#34;r&#34;:1.0,&#34;g&#34;:0.84313726425170898,&#34;b&#34;:0.0,&#34;a&#34;:1.0},&#34;position&#34;:0.18750},{&#34;color&#34;:{&#34;r&#34;:1.0,&#34;g&#34;:1.0,&#34;b&#34;:0.62745100259780884,&#34;a&#34;:1.0},&#34;position&#34;:0.250},{&#34;color&#34;:{&#34;r&#34;:1.0,&#34;g&#34;:0.84313726425170898,&#34;b&#34;:0.0,&#34;a&#34;:1.0},&#34;position&#34;:0.31250},{&#34;color&#34;:{&#34;r&#34;:1.0,&#34;g&#34;:1.0,&#34;b&#34;:0.62745100259780884,&#34;a&#34;:1.0},&#34;position&#34;:0.3750},{&#34;color&#34;:{&#34;r&#34;:1.0,&#34;g&#34;:0.84313726425170898,&#34;b&#34;:0.0,&#34;a&#34;:1.0},&#34;position&#34;:0.43750},{&#34;color&#34;:{&#34;r&#34;:1.0,&#34;g&#34;:1.0,&#34;b&#34;:0.62745100259780884,&#34;a&#34;:1.0},&#34;position&#34;:0.50},{&#34;color&#34;:{&#34;r&#34;:1.0,&#34;g&#34;:0.84313726425170898,&#34;b&#34;:0.0,&#34;a&#34;:1.0},&#34;position&#34;:0.56250},{&#34;color&#34;:{&#34;r&#34;:1.0,&#34;g&#34;:1.0,&#34;b&#34;:0.62745100259780884,&#34;a&#34;:1.0},&#34;position&#34;:0.6250},{&#34;color&#34;:{&#34;r&#34;:1.0,&#34;g&#34;:0.84313726425170898,&#34;b&#34;:0.0,&#34;a&#34;:1.0},&#34;position&#34;:0.68750},{&#34;color&#34;:{&#34;r&#34;:1.0,&#34;g&#34;:1.0,&#34;b&#34;:0.62745100259780884,&#34;a&#34;:1.0},&#34;position&#34;:0.750},{&#34;color&#34;:{&#34;r&#34;:1.0,&#34;g&#34;:0.84313726425170898,&#34;b&#34;:0.0,&#34;a&#34;:1.0},&#34;position&#34;:0.81250},{&#34;color&#34;:{&#34;r&#34;:1.0,&#34;g&#34;:1.0,&#34;b&#34;:0.62745100259780884,&#34;a&#34;:1.0},&#34;position&#34;:0.8750},{&#34;color&#34;:{&#34;r&#34;:1.0,&#34;g&#34;:0.84313726425170898,&#34;b&#34;:0.0,&#34;a&#34;:1.0},&#34;position&#34;:0.93750},{&#34;color&#34;:{&#34;r&#34;:1.0,&#34;g&#34;:1.0,&#34;b&#34;:0.62745100259780884,&#34;a&#34;:0.98039215803146362},&#34;position&#34;:1.0}],&#34;transform&#34;:{&#34;m00&#34;:90.509666442871094,&#34;m01&#34;:-90.509666442871094,&#34;m02&#34;:112.19594573974609,&#34;m10&#34;:90.509666442871094,&#34;m11&#34;:90.509666442871094,&#34;m12&#34;:21.686286926269531},&#34;opacity&#34;:1.0,&#34;blendMode&#34;:&#34;NORMAL&#34;,&#34;visible&#34;:true}" mask="url(#path-4-inside-1_19_117)"/>
</g>
<defs>
<filter id="filter0_d_19_117" x="0" y="0" width="224.392" height="224.392" filterUnits="userSpaceOnUse" color-interpolation-filters="sRGB">
<feFlood flood-opacity="0" result="BackgroundImageFix"/>
<feColorMatrix in="SourceAlpha" type="matrix" values="0 0 0 0 0 0 0 0 0 0 0 0 0 0 0 0 0 0 127 0" result="hardAlpha"/>
<feMorphology radius="5" operator="dilate" in="SourceAlpha" result="effect1_dropShadow_19_117"/>
<feOffset/>
<feGaussianBlur stdDeviation="10"/>
<feComposite in2="hardAlpha" operator="out"/>
<feColorMatrix type="matrix" values="0 0 0 0 1 0 0 0 0 0.843137 0 0 0 0 0 0 0 0 0.75 0"/>
<feBlend mode="normal" in2="BackgroundImageFix" result="effect1_dropShadow_19_117"/>
<feBlend mode="normal" in="SourceGraphic" in2="effect1_dropShadow_19_117" result="shape"/>
</filter>
<clipPath id="paint0_angular_19_117_clip_path"><path d="M27.3431 106.539L38.6568 117.853L117.853 38.6568L106.539 27.3431L95.2254 16.0294L16.0294 95.2254L27.3431 106.539ZM117.853 27.3431L106.539 38.6568L185.735 117.853L197.049 106.539L208.362 95.2254L129.167 16.0294L117.853 27.3431ZM197.049 117.853L185.735 106.539L106.539 185.735L117.853 197.049L129.167 208.362L208.362 129.167L197.049 117.853ZM106.539 197.049L117.853 185.735L38.6568 106.539L27.3431 117.853L16.0294 129.167L95.2254 208.362L106.539 197.049ZM117.853 197.049L106.539 185.735C109.663 182.611 114.729 182.611 117.853 185.735L106.539 197.049L95.2254 208.362C104.598 217.735 119.794 217.735 129.167 208.362L117.853 197.049ZM197.049 106.539L185.735 117.853C182.611 114.729 182.611 109.663 185.735 106.539L197.049 117.853L208.362 129.167C217.735 119.794 217.735 104.598 208.362 95.2254L197.049 106.539ZM106.539 27.3431L117.853 38.6568C114.729 41.781 109.663 41.781 106.539 38.6568L117.853 27.3431L129.167 16.0294C119.794 6.65685 104.598 6.65685 95.2254 16.0294L106.539 27.3431ZM27.3431 106.539L16.0294 95.2254C6.65684 104.598 6.65684 119.794 16.0294 129.167L27.3431 117.853L38.6568 106.539C41.781 109.663 41.781 114.729 38.6568 117.853L27.3431 106.539Z" mask="url(#path-4-inside-1_19_117)"/></clipPath></defs>
</svg>

<svg width="225" height="225" fill="none" xmlns="http://www.w3.org/2000/svg"><path fill="#00E600" d="m30.686 112.711 82.024-82.024 82.025 82.024-82.025 82.025z"/><path d="M93.686 68.686h38l-4.155 11.81a100.005 100.005 0 0 0 0 66.381l4.155 11.809h-38l4.155-11.809a99.997 99.997 0 0 0 0-66.381l-4.155-11.81z" fill="#7A4A2C"/><path d="M130.376 77.258a13.756 13.756 0 0 1-6.536 5.546l-2.112.861-7.862 2.563-10.066 3.155a2.067 2.067 0 0 1-.316.073c-2.154.32-2.424 3.316-.363 4.016l1.31.445 15.724 7.049c2.671.989 2.484 4.827-.27 5.552l-.815.215-11.494 4.485-1.004.484c-3.079 1.484-3.374 5.754-.528 7.648.197.132.405.247.621.345l9.559 4.338 4.086 1.665c.419.171.809.402 1.16.688l.071.058a4.43 4.43 0 0 1 .363 6.54l-.827.843a10.445 10.445 0 0 1-4.01 2.543l-1.252.438a16.154 16.154 0 0 1-4.008.849l-3.733.304a13.494 13.494 0 0 0-8.83 4.31l-.316.344" stroke="#030" stroke-width="5"/><g filter="url(#a)"><mask id="c" fill="#fff"><path d="M27.343 117.853a8 8 0 0 1 0-11.314l79.196-79.196a8 8 0 0 1 11.314 0l79.196 79.196a8 8 0 0 1 0 11.314l-79.196 79.196a8 8 0 0 1-11.314 0l-79.196-79.196z"/></mask><g clip-path="url(#b)" data-figma-skip-parse="true" mask="url(#c)"><foreignObject x="-1250" y="-1250" width="2500" height="2500" transform="rotate(45 -79.334 191.53) scale(.064)"><div xmlns="http://www.w3.org/1999/xhtml" style="background:conic-gradient(from 90deg,#ffffa0 0deg,gold 22.5deg,#ffffa0 45deg,gold 67.5deg,#ffffa0 90deg,gold 112.5deg,#ffffa0 135deg,gold 157.5deg,#ffffa0 180deg,gold 202.5deg,#ffffa0 225deg,gold 247.5deg,#ffffa0 270deg,gold 292.5deg,#ffffa0 315deg,gold 337.5deg,rgba(255,255,160,.9804) 360deg);height:100%;width:100%;opacity:1"/></foreignObject></g><path d="m27.343 106.539 11.314 11.314 79.196-79.196-11.314-11.314L95.225 16.03 16.03 95.225l11.314 11.314zm90.51-79.196-11.314 11.314 79.196 79.196 11.314-11.314 11.313-11.314-79.195-79.196-11.314 11.314zm79.196 90.51-11.314-11.314-79.196 79.196 11.314 11.314 11.314 11.313 79.195-79.195-11.313-11.314zm-90.51 79.196 11.314-11.314-79.196-79.196-11.314 11.314-11.314 11.314 79.196 79.195 11.314-11.313zm11.314 0-11.314-11.314a8 8 0 0 1 11.314 0l-11.314 11.314-11.314 11.313c9.373 9.373 24.569 9.373 33.942 0l-11.314-11.313zm79.196-90.51-11.314 11.314a8 8 0 0 1 0-11.314l11.314 11.314 11.313 11.314c9.373-9.373 9.373-24.569 0-33.942l-11.313 11.314zm-90.51-79.196 11.314 11.314a8 8 0 0 1-11.314 0l11.314-11.314 11.314-11.314c-9.373-9.372-24.569-9.372-33.942 0l11.314 11.314zM27.343 106.54 16.03 95.225c-9.372 9.373-9.372 24.569 0 33.942l11.314-11.314 11.314-11.314a8 8 0 0 1 0 11.314l-11.314-11.314z" data-figma-gradient-fill="{&quot;type&quot;:&quot;GRADIENT_ANGULAR&quot;,&quot;stops&quot;:[{&quot;color&quot;:{&quot;r&quot;:1.0,&quot;g&quot;:1.0,&quot;b&quot;:0.62745100259780884,&quot;a&quot;:1.0},&quot;position&quot;:0.0},{&quot;color&quot;:{&quot;r&quot;:1.0,&quot;g&quot;:0.84313726425170898,&quot;b&quot;:0.0,&quot;a&quot;:1.0},&quot;position&quot;:0.06250},{&quot;color&quot;:{&quot;r&quot;:1.0,&quot;g&quot;:1.0,&quot;b&quot;:0.62745100259780884,&quot;a&quot;:1.0},&quot;position&quot;:0.1250},{&quot;color&quot;:{&quot;r&quot;:1.0,&quot;g&quot;:0.84313726425170898,&quot;b&quot;:0.0,&quot;a&quot;:1.0},&quot;position&quot;:0.18750},{&quot;color&quot;:{&quot;r&quot;:1.0,&quot;g&quot;:1.0,&quot;b&quot;:0.62745100259780884,&quot;a&quot;:1.0},&quot;position&quot;:0.250},{&quot;color&quot;:{&quot;r&quot;:1.0,&quot;g&quot;:0.84313726425170898,&quot;b&quot;:0.0,&quot;a&quot;:1.0},&quot;position&quot;:0.31250},{&quot;color&quot;:{&quot;r&quot;:1.0,&quot;g&quot;:1.0,&quot;b&quot;:0.62745100259780884,&quot;a&quot;:1.0},&quot;position&quot;:0.3750},{&quot;color&quot;:{&quot;r&quot;:1.0,&quot;g&quot;:0.84313726425170898,&quot;b&quot;:0.0,&quot;a&quot;:1.0},&quot;position&quot;:0.43750},{&quot;color&quot;:{&quot;r&quot;:1.0,&quot;g&quot;:1.0,&quot;b&quot;:0.62745100259780884,&quot;a&quot;:1.0},&quot;position&quot;:0.50},{&quot;color&quot;:{&quot;r&quot;:1.0,&quot;g&quot;:0.84313726425170898,&quot;b&quot;:0.0,&quot;a&quot;:1.0},&quot;position&quot;:0.56250},{&quot;color&quot;:{&quot;r&quot;:1.0,&quot;g&quot;:1.0,&quot;b&quot;:0.62745100259780884,&quot;a&quot;:1.0},&quot;position&quot;:0.6250},{&quot;color&quot;:{&quot;r&quot;:1.0,&quot;g&quot;:0.84313726425170898,&quot;b&quot;:0.0,&quot;a&quot;:1.0},&quot;position&quot;:0.68750},{&quot;color&quot;:{&quot;r&quot;:1.0,&quot;g&quot;:1.0,&quot;b&quot;:0.62745100259780884,&quot;a&quot;:1.0},&quot;position&quot;:0.750},{&quot;color&quot;:{&quot;r&quot;:1.0,&quot;g&quot;:0.84313726425170898,&quot;b&quot;:0.0,&quot;a&quot;:1.0},&quot;position&quot;:0.81250},{&quot;color&quot;:{&quot;r&quot;:1.0,&quot;g&quot;:1.0,&quot;b&quot;:0.62745100259780884,&quot;a&quot;:1.0},&quot;position&quot;:0.8750},{&quot;color&quot;:{&quot;r&quot;:1.0,&quot;g&quot;:0.84313726425170898,&quot;b&quot;:0.0,&quot;a&quot;:1.0},&quot;position&quot;:0.93750},{&quot;color&quot;:{&quot;r&quot;:1.0,&quot;g&quot;:1.0,&quot;b&quot;:0.62745100259780884,&quot;a&quot;:0.98039215803146362},&quot;position&quot;:1.0}],&quot;stopsVar&quot;:[{&quot;color&quot;:{&quot;r&quot;:1.0,&quot;g&quot;:1.0,&quot;b&quot;:0.62745100259780884,&quot;a&quot;:1.0},&quot;position&quot;:0.0},{&quot;color&quot;:{&quot;r&quot;:1.0,&quot;g&quot;:0.84313726425170898,&quot;b&quot;:0.0,&quot;a&quot;:1.0},&quot;position&quot;:0.06250},{&quot;color&quot;:{&quot;r&quot;:1.0,&quot;g&quot;:1.0,&quot;b&quot;:0.62745100259780884,&quot;a&quot;:1.0},&quot;position&quot;:0.1250},{&quot;color&quot;:{&quot;r&quot;:1.0,&quot;g&quot;:0.84313726425170898,&quot;b&quot;:0.0,&quot;a&quot;:1.0},&quot;position&quot;:0.18750},{&quot;color&quot;:{&quot;r&quot;:1.0,&quot;g&quot;:1.0,&quot;b&quot;:0.62745100259780884,&quot;a&quot;:1.0},&quot;position&quot;:0.250},{&quot;color&quot;:{&quot;r&quot;:1.0,&quot;g&quot;:0.84313726425170898,&quot;b&quot;:0.0,&quot;a&quot;:1.0},&quot;position&quot;:0.31250},{&quot;color&quot;:{&quot;r&quot;:1.0,&quot;g&quot;:1.0,&quot;b&quot;:0.62745100259780884,&quot;a&quot;:1.0},&quot;position&quot;:0.3750},{&quot;color&quot;:{&quot;r&quot;:1.0,&quot;g&quot;:0.84313726425170898,&quot;b&quot;:0.0,&quot;a&quot;:1.0},&quot;position&quot;:0.43750},{&quot;color&quot;:{&quot;r&quot;:1.0,&quot;g&quot;:1.0,&quot;b&quot;:0.62745100259780884,&quot;a&quot;:1.0},&quot;position&quot;:0.50},{&quot;color&quot;:{&quot;r&quot;:1.0,&quot;g&quot;:0.84313726425170898,&quot;b&quot;:0.0,&quot;a&quot;:1.0},&quot;position&quot;:0.56250},{&quot;color&quot;:{&quot;r&quot;:1.0,&quot;g&quot;:1.0,&quot;b&quot;:0.62745100259780884,&quot;a&quot;:1.0},&quot;position&quot;:0.6250},{&quot;color&quot;:{&quot;r&quot;:1.0,&quot;g&quot;:0.84313726425170898,&quot;b&quot;:0.0,&quot;a&quot;:1.0},&quot;position&quot;:0.68750},{&quot;color&quot;:{&quot;r&quot;:1.0,&quot;g&quot;:1.0,&quot;b&quot;:0.62745100259780884,&quot;a&quot;:1.0},&quot;position&quot;:0.750},{&quot;color&quot;:{&quot;r&quot;:1.0,&quot;g&quot;:0.84313726425170898,&quot;b&quot;:0.0,&quot;a&quot;:1.0},&quot;position&quot;:0.81250},{&quot;color&quot;:{&quot;r&quot;:1.0,&quot;g&quot;:1.0,&quot;b&quot;:0.62745100259780884,&quot;a&quot;:1.0},&quot;position&quot;:0.8750},{&quot;color&quot;:{&quot;r&quot;:1.0,&quot;g&quot;:0.84313726425170898,&quot;b&quot;:0.0,&quot;a&quot;:1.0},&quot;position&quot;:0.93750},{&quot;color&quot;:{&quot;r&quot;:1.0,&quot;g&quot;:1.0,&quot;b&quot;:0.62745100259780884,&quot;a&quot;:0.98039215803146362},&quot;position&quot;:1.0}],&quot;transform&quot;:{&quot;m00&quot;:90.509666442871094,&quot;m01&quot;:-90.509666442871094,&quot;m02&quot;:112.19594573974609,&quot;m10&quot;:90.509666442871094,&quot;m11&quot;:90.509666442871094,&quot;m12&quot;:21.686286926269531},&quot;opacity&quot;:1.0,&quot;blendMode&quot;:&quot;NORMAL&quot;,&quot;visible&quot;:true}" mask="url(#c)"/></g><defs><clipPath id="b"><path d="m27.343 106.539 11.314 11.314 79.196-79.196-11.314-11.314L95.225 16.03 16.03 95.225l11.314 11.314zm90.51-79.196-11.314 11.314 79.196 79.196 11.314-11.314 11.313-11.314-79.195-79.196-11.314 11.314zm79.196 90.51-11.314-11.314-79.196 79.196 11.314 11.314 11.314 11.313 79.195-79.195-11.313-11.314zm-90.51 79.196 11.314-11.314-79.196-79.196-11.314 11.314-11.314 11.314 79.196 79.195 11.314-11.313zm11.314 0-11.314-11.314a8 8 0 0 1 11.314 0l-11.314 11.314-11.314 11.313c9.373 9.373 24.569 9.373 33.942 0l-11.314-11.313zm79.196-90.51-11.314 11.314a8 8 0 0 1 0-11.314l11.314 11.314 11.313 11.314c9.373-9.373 9.373-24.569 0-33.942l-11.313 11.314zm-90.51-79.196 11.314 11.314a8 8 0 0 1-11.314 0l11.314-11.314 11.314-11.314c-9.373-9.372-24.569-9.372-33.942 0l11.314 11.314zM27.343 106.54 16.03 95.225c-9.372 9.373-9.372 24.569 0 33.942l11.314-11.314 11.314-11.314a8 8 0 0 1 0 11.314l-11.314-11.314z" mask="url(#c)"/></clipPath><filter id="a" x="0" y="0" width="224.392" height="224.392" filterUnits="userSpaceOnUse" color-interpolation-filters="sRGB"><feFlood flood-opacity="0" result="BackgroundImageFix"/><feColorMatrix in="SourceAlpha" values="0 0 0 0 0 0 0 0 0 0 0 0 0 0 0 0 0 0 127 0" result="hardAlpha"/><feMorphology radius="5" operator="dilate" in="SourceAlpha" result="effect1_dropShadow_19_117"/><feOffset/><feGaussianBlur stdDeviation="10"/><feComposite in2="hardAlpha" operator="out"/><feColorMatrix values="0 0 0 0 1 0 0 0 0 0.843137 0 0 0 0 0 0 0 0 0.75 0"/><feBlend in2="BackgroundImageFix" result="effect1_dropShadow_19_117"/><feBlend in="SourceGraphic" in2="effect1_dropShadow_19_117" result="shape"/></filter></defs></svg>
